lib/flags/s/MNE.svg

<svg xmlns="http://www.w3.org/2000/svg" fill="none" viewBox="0 0 16 12"><mask id="MNE_svg__a" width="16" height="12" x="0" y="0" mask-type="alpha" maskUnits="userSpaceOnUse"><path fill="#fff" d="M0 0H16V12H0z"/></mask><g mask="url(#MNE_svg__a)"><path fill="#E8AA00" fill-rule="evenodd" d="M0 0H16V12H0V0Z" clip-rule="evenodd"/><path fill="#C51918" fill-rule="evenodd" d="M2 2H14V10H2V2Z" clip-rule="evenodd"/><mask id="MNE_svg__b" width="12" height="8" x="2" y="2" mask-type="alpha" maskUnits="userSpaceOnUse"><path fill="#fff" fill-rule="evenodd" d="M2 2H14V10H2V2Z" clip-rule="evenodd"/></mask><g mask="url(#MNE_svg__b)"><path fill="#1E5E91" fill-rule="evenodd" d="M10.1154 7.87565C10.3193 7.87565 10.4846 7.70625 10.4846 7.49727C10.4846 7.2883 10.3193 7.1189 10.1154 7.1189C9.91147 7.1189 9.74615 7.2883 9.74615 7.49727C9.74615 7.70625 9.91147 7.87565 10.1154 7.87565Z" clip-rule="evenodd"/><path fill="#F6C540" fill-rule="evenodd" d="M5.31378 6.16586C4.34516 5.04014 5.73341 3.08655 5.73341 3.08655C5.73341 3.08655 5.94095 4.25332 6.70913 5.03845C6.70913 5.0942 6.63659 5.17646 6.56315 5.25974C6.51186 5.3179 6.46013 5.37655 6.43236 5.42703C6.36482 5.54979 6.59669 5.61976 6.70913 5.61976C6.7596 5.61976 6.78749 5.69295 6.81265 5.75901C6.84356 5.84013 6.87037 5.9105 6.92987 5.82136C7.03782 5.65962 6.82192 5.30427 6.82192 5.30427L7.1637 4.94377L7.27929 4.71073H7.1637V4.47081L7.08271 4.53732C7.08271 4.53732 6.99385 4.3228 6.82192 4.3228C6.64999 4.3228 6.59669 4.2247 6.59669 4.2247H6.82192C6.9347 4.2247 6.80389 4.07525 6.70913 3.99741C6.66666 3.96251 6.60222 3.97454 6.54405 3.9854C6.47244 3.99877 6.41032 4.01037 6.41032 3.93051C6.41032 3.84297 6.47848 3.83137 6.55723 3.81797C6.6087 3.80922 6.66469 3.79969 6.70913 3.76769C6.78264 3.71476 6.88172 3.73103 6.98897 3.74865C7.04578 3.75798 7.10488 3.76769 7.1637 3.76769H7.44218C7.54274 3.76769 7.27929 3.93051 7.27929 3.93051L7.44218 4.07525L7.68442 4.3228L7.56328 4.3947L7.81325 4.6371C7.81325 4.6371 7.72839 4.77506 7.81325 4.77506C7.84822 4.77506 7.87123 4.80372 7.88621 4.83742C7.90118 4.80372 7.92419 4.77506 7.95917 4.77506C8.04402 4.77506 7.95917 4.6371 7.95917 4.6371L8.20914 4.3947L8.08799 4.3228L8.33023 4.07525L8.49313 3.93051C8.49313 3.93051 8.22967 3.76769 8.33023 3.76769H8.60871C8.66753 3.76769 8.72663 3.75798 8.78344 3.74865C8.8907 3.73103 8.98977 3.71476 9.06328 3.76769C9.10772 3.79969 9.16372 3.80922 9.21518 3.81797C9.29393 3.83137 9.36209 3.84297 9.36209 3.93051C9.36209 4.01037 9.29997 3.99877 9.22837 3.9854C9.17019 3.97454 9.10576 3.96251 9.06328 3.99741C8.96852 4.07525 8.83771 4.2247 8.9505 4.2247H9.17572C9.17572 4.2247 9.12243 4.3228 8.9505 4.3228C8.77856 4.3228 8.6897 4.53732 8.6897 4.53732L8.60871 4.47081V4.71073H8.49313L8.60871 4.94377L8.9505 5.30427C8.9505 5.30427 8.73459 5.65962 8.84254 5.82136C8.90204 5.9105 8.92885 5.84013 8.95976 5.75901C8.98493 5.69295 9.01281 5.61976 9.06328 5.61976C9.17572 5.61976 9.40759 5.54979 9.34005 5.42703C9.31228 5.37655 9.26055 5.3179 9.20926 5.25974C9.13582 5.17646 9.06328 5.0942 9.06328 5.03845C9.83146 4.25332 10.039 3.08655 10.039 3.08655C10.039 3.08655 11.4273 5.04014 10.4586 6.16586C9.49001 7.29159 8.77856 6.95213 8.77856 6.95213C8.77856 6.95213 9.63665 7.75046 9.73166 7.75064C9.74505 7.75067 9.71513 7.67699 9.68547 7.60394C9.65619 7.53184 9.62716 7.46036 9.64025 7.46092C9.66787 7.46211 9.72216 7.52764 9.77664 7.5934C9.82006 7.64582 9.8636 7.69839 9.89386 7.71862C9.91334 7.73166 9.98944 7.70522 10.06 7.68073C10.1196 7.66003 10.1752 7.64071 10.1892 7.64779C10.2487 7.67779 10.2335 7.7385 10.219 7.79631C10.2153 7.81117 10.2116 7.82584 10.2093 7.83975C10.2071 7.8524 10.2833 7.80301 10.3634 7.75105C10.4475 7.6965 10.5359 7.63913 10.5426 7.64779C10.5441 7.64961 10.5456 7.65146 10.5472 7.65338C10.5758 7.68778 10.6218 7.7432 10.2818 8.00525C10.2818 8.05563 10.2836 8.09673 10.2851 8.13013C10.2898 8.23737 10.291 8.26514 10.2183 8.26514C10.186 8.26514 10.1407 8.28118 10.0883 8.29977C9.95377 8.34744 9.77215 8.41181 9.64025 8.26514C9.45691 8.06127 8.33023 7.24073 8.33023 7.24073L8.20914 7.30827C8.20914 7.30827 8.62181 8.44712 8.84254 8.45504C8.95223 8.45898 8.78567 8.56543 8.56503 8.70643C8.34166 8.84919 8.06287 9.02736 7.95917 9.17045C7.9283 9.21304 7.90445 9.14811 7.88621 9.0069C7.86796 9.14811 7.84411 9.21304 7.81325 9.17045C7.70954 9.02736 7.43075 8.84918 7.20738 8.70643C6.98674 8.56543 6.82018 8.45898 6.92987 8.45504C7.1506 8.44712 7.56328 7.30827 7.56328 7.30827L7.44218 7.24073L6.99385 7.75568C6.99385 7.75568 6.3155 8.06127 6.13216 8.26514C6.00027 8.41181 5.81864 8.34744 5.68416 8.29977C5.63172 8.28118 5.58645 8.26514 5.55409 8.26514C5.43874 8.26514 5.40013 8.10375 5.55409 7.90587C5.64442 7.78976 5.7827 7.77423 5.91452 7.75943C6.00735 7.749 6.09699 7.73893 6.16442 7.69435C6.32762 7.58646 6.59669 7.30827 6.59669 7.30827L6.99385 6.95213C6.99385 6.95213 6.2824 7.29159 5.31378 6.16586Z" clip-rule="evenodd"/><path fill="#F6C540" fill-rule="evenodd" d="M6.21653 8.51521L5.77897 7.74811C5.77897 7.74811 5.20689 6.42906 5.20689 6.26892C5.20689 6.10877 4.97658 5.63452 4.97658 5.77219C4.97658 5.90985 4.95752 7.01373 4.95752 7.01373L5.94182 8.44341V8.61475H6.0718L6.21653 8.51521Z" clip-rule="evenodd"/><path fill="#F6C540" d="M9.72095 7.48243L9.78752 7.26147L10.6005 7.50639L10.5339 7.72735L9.72095 7.48243Z"/><path fill="#F6C540" d="M10.1539 7.0802L10.3737 7.15216L10.159 7.84117L9.93915 7.76921L10.1539 7.0802Z"/><path fill="#F6C540" fill-rule="evenodd" d="M8.06858 2.64625C8.03669 2.63369 8.0028 2.62201 7.96693 2.61121L7.96427 2.62048C7.93268 2.61458 7.90314 2.61121 7.87692 2.61121C7.86754 2.61121 7.85773 2.61164 7.84756 2.61246L7.8472 2.61121C7.8452 2.61181 7.8432 2.61241 7.84121 2.61302C7.7842 2.61847 7.71637 2.63565 7.6474 2.65802C7.2829 2.69928 7.09454 2.8596 7.11539 3.13549C7.1261 3.27718 7.17359 3.37822 7.25307 3.43544V3.51987C7.25307 3.51987 7.66897 3.79023 7.87692 3.79023C8.08487 3.79023 8.50077 3.51987 8.50077 3.51987V3.46732C8.61538 3.42152 8.68362 3.30898 8.69673 3.13549C8.7182 2.85147 8.51794 2.68993 8.13202 2.65468L8.13096 2.66616C8.11007 2.65906 8.08919 2.65237 8.06858 2.64625ZM8.50077 3.30076V2.93344C8.54599 2.984 8.56449 3.0479 8.55863 3.12537C8.55252 3.20622 8.53415 3.26408 8.50077 3.30076ZM7.25307 3.11904V3.07806C7.25223 3.09126 7.25223 3.10492 7.25307 3.11904Z" clip-rule="evenodd"/><path fill="#1E5E91" fill-rule="evenodd" d="M6.97688 5.17974C6.97688 5.17974 7.54572 5.07239 7.8538 5.07239C8.13034 5.07239 8.73072 5.17974 8.73072 5.17974C8.73072 5.85976 8.92209 6.27609 8.73072 6.74055C8.53936 7.20501 8.07171 6.98175 7.86004 7.4262C7.58954 7.00462 7.22421 7.23668 6.97688 6.63637C6.72954 6.03606 7.12725 5.75957 6.97688 5.17974Z" clip-rule="evenodd"/><mask id="MNE_svg__c" width="3" height="3" x="6" y="5" mask-type="alpha" maskUnits="userSpaceOnUse"><path fill="#fff" fill-rule="evenodd" d="M6.97688 5.17974C6.97688 5.17974 7.54572 5.07239 7.8538 5.07239C8.13034 5.07239 8.73072 5.17974 8.73072 5.17974C8.73072 5.85976 8.92209 6.27609 8.73072 6.74055C8.53936 7.20501 8.07171 6.98175 7.86004 7.4262C7.58954 7.00462 7.22421 7.23668 6.97688 6.63637C6.72954 6.03606 7.12725 5.75957 6.97688 5.17974Z" clip-rule="evenodd"/></mask><g mask="url(#MNE_svg__c)"><path fill="#5EAA22" d="M6.977 6.599H8.731V7.45H6.977z"/></g><path fill="#F6C540" fill-rule="evenodd" d="M7.89996 6.40002C8.17611 6.40002 8.39996 6.17617 8.39996 5.90002C8.39996 5.62388 8.17611 5.40002 7.89996 5.40002C7.62382 5.40002 7.39996 5.62388 7.39996 5.90002C7.39996 6.17617 7.62382 6.40002 7.89996 6.40002Z" clip-rule="evenodd"/></g></g></svg>

<svg xmlns="http://www.w3.org/2000/svg" fill="none" viewBox="0 0 16 12"><mask id="MNE_svg__a" width="16" height="12" x="0" y="0" maskUnits="userSpaceOnUse"><path fill="#fff" d="M0 0h16v12H0z"/></mask><g mask="url(#MNE_svg__a)"><path fill="#E8AA00" fill-rule="evenodd" d="M0 0h16v12H0V0z" clip-rule="evenodd"/><path fill="#C51918" fill-rule="evenodd" d="M2 2h12v8H2V2z" clip-rule="evenodd"/><mask id="MNE_svg__b" width="12" height="8" x="2" y="2" maskUnits="userSpaceOnUse"><path fill="#fff" fill-rule="evenodd" d="M2 2h12v8H2V2z" clip-rule="evenodd"/></mask><g mask="url(#MNE_svg__b)"><path fill="#1E5E91" fill-rule="evenodd" d="M10.115 7.876c.204 0 .37-.17.37-.379a.374.374 0 00-.37-.378.374.374 0 00-.369.378c0 .21.165.379.37.379z" clip-rule="evenodd"/><path fill="#F6C540" fill-rule="evenodd" d="M5.314 6.166c-.969-1.126.42-3.08.42-3.08s.207 1.167.975 1.953c0 .055-.072.138-.146.22a1.087 1.087 0 00-.13.168c-.068.123.164.193.276.193.05 0 .078.073.104.14.03.08.057.15.117.061.108-.161-.108-.517-.108-.517l.342-.36.115-.233h-.115v-.24l-.081.066s-.09-.214-.261-.214c-.172 0-.225-.098-.225-.098h.225c.113 0-.018-.15-.113-.228-.042-.034-.107-.022-.165-.012-.072.014-.134.025-.134-.054 0-.088.068-.1.147-.113a.356.356 0 00.152-.05c.074-.053.173-.037.28-.02.057.01.116.02.175.02h.278c.1 0-.163.163-.163.163l.163.144.242.248-.12.072.25.242s-.086.138 0 .138c.034 0 .057.029.072.062.015-.033.038-.062.073-.062.085 0 0-.138 0-.138l.25-.242-.121-.072.242-.248.163-.144s-.263-.163-.163-.163h.279c.059 0 .118-.01.174-.02.108-.017.207-.033.28.02.045.032.1.041.152.05.079.013.147.025.147.113 0 .08-.062.068-.134.054-.058-.01-.122-.022-.165.012-.094.078-.225.228-.113.228h.226s-.054.098-.226.098c-.171 0-.26.214-.26.214l-.081-.066v.24h-.116l.116.233.341.36s-.215.356-.107.517c.059.09.086.02.117-.062.025-.066.053-.14.103-.14.113 0 .345-.07.277-.192-.028-.05-.08-.109-.13-.167-.074-.083-.147-.166-.147-.221.768-.786.976-1.952.976-1.952s1.388 1.953.42 3.079c-.969 1.126-1.68.786-1.68.786s.858.799.953.799c.013 0-.017-.074-.047-.147-.029-.072-.058-.144-.045-.143.028.001.082.067.137.132a.791.791 0 00.117.126c.02.013.095-.014.166-.038.06-.02.115-.04.13-.033.059.03.043.09.029.148l-.01.044c-.002.012.074-.037.154-.089.085-.054.173-.112.18-.103l.004.005c.029.035.075.09-.265.352 0 .05.002.092.003.125.005.107.006.135-.067.135a.466.466 0 00-.13.035c-.134.047-.316.112-.448-.035-.183-.204-1.31-1.024-1.31-1.024l-.12.067s.412 1.14.633 1.147c.11.004-.057.11-.278.252-.223.142-.502.32-.606.464-.03.042-.055-.023-.073-.164-.018.141-.042.206-.073.164-.103-.144-.382-.322-.606-.464-.22-.142-.387-.248-.277-.252.22-.008.633-1.147.633-1.147l-.12-.067-.45.515s-.678.305-.86.51c-.133.146-.314.082-.449.034a.466.466 0 00-.13-.035c-.115 0-.154-.161 0-.36.09-.115.229-.13.36-.146a.557.557 0 00.25-.065c.164-.107.433-.386.433-.386l.397-.356s-.712.34-1.68-.786z" clip-rule="evenodd"/><path fill="#F6C540" fill-rule="evenodd" d="M6.217 8.515l-.438-.767s-.572-1.319-.572-1.48c0-.16-.23-.634-.23-.496s-.02 1.242-.02 1.242l.985 1.43v.17h.13l.145-.099z" clip-rule="evenodd"/><path fill="#F6C540" d="M9.72 7.482l.068-.22.813.244-.067.221-.813-.245z"/><path fill="#F6C540" d="M10.154 7.08l.22.072-.215.69-.22-.073.215-.689z"/><path fill="#F6C540" fill-rule="evenodd" d="M8.069 2.646a1.301 1.301 0 00-.102-.035l-.003.01a.485.485 0 00-.116-.009l-.007.001a.957.957 0 00-.194.045c-.364.041-.552.202-.532.477.011.142.059.243.138.3v.085s.416.27.624.27c.208 0 .624-.27.624-.27v-.053c.114-.045.183-.158.196-.332.021-.284-.18-.445-.565-.48l-.001.011a1.666 1.666 0 00-.062-.02zm.432.655v-.368a.252.252 0 01.058.192c-.006.081-.025.14-.058.176zm-1.248-.182v-.04.04z" clip-rule="evenodd"/><path fill="#1E5E91" fill-rule="evenodd" d="M6.977 5.18s.569-.108.877-.108c.276 0 .877.108.877.108 0 .68.191 1.096 0 1.56-.192.465-.66.242-.871.686-.27-.421-.636-.19-.883-.79-.247-.6.15-.876 0-1.456z" clip-rule="evenodd"/><mask id="MNE_svg__c" width="3" height="3" x="6" y="5" maskUnits="userSpaceOnUse"><path fill="#fff" fill-rule="evenodd" d="M6.977 5.18s.569-.108.877-.108c.276 0 .877.108.877.108 0 .68.191 1.096 0 1.56-.192.465-.66.242-.871.686-.27-.421-.636-.19-.883-.79-.247-.6.15-.876 0-1.456z" clip-rule="evenodd"/></mask><g mask="url(#MNE_svg__c)"><path fill="#5EAA22" d="M6.977 6.599h1.754v.851H6.977z"/></g><path fill="#F6C540" fill-rule="evenodd" d="M7.9 6.4a.5.5 0 100-1 .5.5 0 000 1z" clip-rule="evenodd"/></g></g></svg>
